X: 10733
T: 6. SLEEPY MAGGIE -- Reel
R: reel
N: Six Strathspeys and Reels Arranged by W.B. Laybourn
B: K\"ohler's Violin Repository, v.1, 1885 p.73 #3
F: http://www.archive.org/details/klersviolinrepos01edin
Z: 2012 John Chambers <jc:trillian.mit.edu>
M: C|
L: 1/8
K: Bm
|:\
vf2(Bb) fBde | f2(Aa) eAce | f2(Bb) fBde | f^gaf eAce :|
fBdB fBde | fBdB eAce | fBdB aBgB | f^gaf eAce |
fBdB fBde | fBdB eAce | fBdB aBgB | f^gaf eAc"^Fine."e |]

%%sep 2 1 500

